X: 13602
T: Flypolska
R: waltz
M: 3/4
K: Edorian
|:E2 E/F/G/A/ Be|dB/d/ cA B/A/G/F/|E2 E/F/G/A/ Be|dB/d/ cA B2|
E2 E/F/G/A/ Be|dB/d/ cA B/A/G/F/|E2 E/F/G/A/ BG|1 FD/F/ E2 E2:|2 FD/F/ E4||
|:f>g fe de/f/|g>a gf g/f/e/g/|f>g fe de/f/|g2 gf/g/ e/f/g/a/|
b2 bg/b/ af/a/|ge/g/ fd B2|E2 E/F/G/A/ BG|1 FD/F/ E2 E2:|2 FD/F/ E4||

